X:1
T:Scheherazade
T:Suite Symphonique Excerpts arranged for Meryl Davis and Charlie White Gold Medal Winners in 2014 Winter Olympics Ice Dancing Competition
T:Nikolai Rimsky-Korsakov, Op. 35
T:Réduction par Paul Gilson
%%score { ( 1 2 ) | ( 3 4 5 ) }
L:1/8
Q:1/4=48
M:4/4
K:G
V:1 treble nm="Piano"
V:2 treble 
V:3 bass 
V:4 bass 
V:5 bass 
V:1
"^Lento"!f! e'4-"^Excerpts from Part I" e'(3d'/e'/d'/ (3c'/d'/c'/(3b/c'/b/[Q:1/4=24] (3a/c'/e'/[Q:1/4=12] (3g'/f'3/4e'/4 || %1
[K:E][M:6/4][Q:1/4=168]"^Allegro non troppo"!mp! [egbe']12- | [egbe']6- [egbe']2 z4 | E6- E4 B,2 | %4
 =D6 D2 .C2 .^B,2 |!mf! C/!p!=D/C/D/ C/D/C/D/ C/D/C/D/ C/D/C/D/!mp! C/D/C/D/!mf! ^B,C | %6
 .F2 .B,2 z8 |!mf! !arpeggio!.[FBf]2 .B2 z8 | [FB]6- [FB]4 F2 | A6- A2 G2 ^^F2 | %10
 G/!p!A/G/A/ G/A/G/A/ G/A/G/A/ G/A/G/A/ G/A/G/A/!p! ^^FG |!mf! .c2 .G2 z8 | %12
 !arpeggio!.[B^ec']2 .g2 z8 ||[K:G]!mp! .e2 (3ded (3cdc (3BcB (3Ace (3gfe | %14
 .e2 (3ded (3cdc (3BcB (3Ace (3gfe | .e2 (3Ace (3gfe .e2 (3Ace (3gfe | .e2 (3Ace (3gfe f3 g a2 | %17
!f!"^D" [Gg]2 (3gbd' (3[gg']f'^e' [ff']2 (3gbd' (3[ff']=f'=e' | %18
 [=f=f']2 (3gbd' (3[ff']e'^d' [ee']2 (3e^gb (3[d=d']^c'b | %19
 [^ce^c']2!8va(! (3ac'e' (3[aa']^g'^^f' [^gg']2 (3ac'e' (3[gg']=g'^f' | %20
 [g^c'g']2 (3ac'e' (3[gg']f'^e' [ff']2 (3f^ac' (3[e=e']^d'c' |: %21
!f! [^df^d']2 (3bd'f' (3[bb']^a'^^g' [^aa']2 (3bd'f' (3[aa']=a'^g' | %22
 [=af'=a']!8va)! z!mp! A/B/A/B/ A/B/A/B/ A/B/A/B/ A/!mf!B/A/B/!f! =GF | %23
 [D=G]2!8va(! (3gbd' (3[gg']f'^e' [ff']2 (3gbd' (3[ff']=f'^e' | %24
{/^e} ^e'/f'/e'/f'/ e'/f'/e'/f'/ e'/f'/e'/f'/ e'/f'/e'/f'/ e'/f'/e'/f'/ ^c' z!8va)! :| %25
!mp! [^dfb]/^c'/[dfb]/c'/ [dfb]/c'/[dfb]/c'/ [dfb]/c'/[dfb]/c'/ [dfb]/c'/[dfb]/c'/ [dfb]/c'/[dfb]/c'/ [dab]/c'/[dab]/c'/ | %26
 [=d=gb]/^c'/[dgb]/c'/ [=d=gb]/c'/[dgb]/c'/ [=d=gb]/c'/[dgb]/c'/ [^c^gb]/c'/[cgb]/c'/ [cgb]/c'/[cgb]/c'/ [cgb]/c'/[cgb]/c'/ | %27
 [^dfb]/^c'/[dfb]/c'/ [dfb]/c'/[dfb]/c'/ [dfb]/c'/[dfb]/c'/ [dfb]/c'/[dfb]/c'/ [dfb]/c'/[dfb]/c'/ [dab]/c'/[dab]/c'/ | %28
 [=d=gb]/^c'/[dgb]/c'/ [=d=gb]/c'/[dgb]/c'/ [=d=gb]/c'/[dgb]/c'/ [^c^gb]/c'/[cgb]/c'/ [cgb]/c'/[cgb]/c'/ [cgb]/c'/[cgb]/c'/ | %29
!f! b6- b4 f2 | a6- a2 ^g2 ^^f2 | %31
{/^G} ^g/!mp!a/g/a/ g/a/g/a/ g/a/g/a/ g/a/g/!mf!a/ g/a/g/a/!f! ^^fg | %32
 .[^c^e^c']2 .[^c^e^g]2 z2 .[=c=e=c']2 .[ce=g]2 B,2 | %33
 .[ABeb]2 .[Bef]2 z2 .[b^d'f'b']2 .[bd'f']2 B,2 | [B,^DF]6 B,2 D2 F2 || %35
[M:6/8][Q:1/4=72]"^Andantino quasi Allegretto""^Excerpts from Part III"!p! Bc | d>ed B>AG | %37
 B3- B Bc | de/d/e/d/ c/B/c/B/A/G/ | B3 E EG | A>BA GFG | E3 G2 F | EFG A{/BA}G>F | G3- G EG | %44
 A>BA F>ED | E3- E EG | AB/A/B/A/ G/F/G/F/E/D/ | E3- E FG | A>BA GF{/A}G | E>FD D ED | %50
 CB,D C!mp!!<(! DC | B,!mf!^A,C B,!<)![Q:1/4=48]"^Allargando assai"!f! [Bb][dd'] | %52
!ff! [_e_e'][ff'][gg'] [=f=f'][ee']/[ff']/[ee']/>[dd']/ | [dgbd']3 [cc']2 [Bb] | %54
 [Aa][Bb][cc'][Q:1/4=24] !fermata![Bb][Q:1/4=48][Aa]/[Gg]/(3[Bb]/[Aa]/[Gg]/ | %55
[Q:1/4=70]"^a tempo" [GBdg][I:staff +1].G,/4.D/4!mp![I:staff -1].B/4.g/4.g/4.B/4!p![I:staff +1].D/4.G,/4 .G,.G,/4.D/4!mp![I:staff -1].B/4.g/4.g/4.B/4!p![I:staff +1].D/4.G,/4 | %56
[I:staff -1] (11:12:11_A/4_B/4c/4!p!d/4_e/4=f/4!mp!g/4_a/4!mf!_b/4c'/4d'/4 (15:12:15!>!_e'/4d'/4=f'/4e'/4!mp!d'/4c'/4b/4a/4g/4f/4!p!e/4d/4c/4B/4A/4 | %57
 G[I:staff +1].G,/4.D/4!mp![I:staff -1].B/4.g/4.g/4.B/4!p![I:staff +1].D/4.G,/4 .G,.G,/4.D/4!mp![I:staff -1].B/4.g/4.g/4.B/4!p![I:staff +1].D/4.G,/4 | %58
[I:staff -1] (14:12:14_A/4_B/4c/4!p!d/4_e/4=f/4g/4!mp!_a/4_b/4!mf!c'/4d'/4_e'/4!f!=f'/4g'/4 (18:12:18_a'/4g'/4!>(!_b'/4!mf!a'/4g'/4f'/4e'/4d'/4!mp!c'/4b/4a/4g/4f/4!p!e/4d/4c/4!>)!B/4A/4 | %59
 G[I:staff +1] .G,/4.D/4!mp![I:staff -1].B/4.g/4.g/4.B/4[I:staff +1].D/4!p!.G,/4[I:staff -1] x || %60
[K:C][M:2/8]!mf! (3z [cc'][dd'] | (3[ee']3/2[^d^d']/[ee']- | (3[ee'].[gg'].[ff'] | %63
 (3[ee']3/2[^d^d']/[ee']- | (3[ee'].[cc'].[=d=d'] | (3[ee']3/2[^d^d']/[ee']- | %66
 (3[ee'].[gg'].[ff'] | (3[ee']3/2[^d^d']/[ee']- | (3[ee'] .[=d=d'].[^c^c'] | %69
 (3[dd']3/2[ee']/[dd']- | (3[dd'].[cc'].[Bb] | (3[cc']3/2[dd']/[cc']- | (3[cc'].[Bb].[Aa] | %73
 (3[Bb][dd'][cc']- | (3[cc'].[Bb].[cc'] | (3:2:2[Aa]2 [Aa]- | (3[Aa] [Ee][^F^f] || %77
[K:E] (3!arpeggio![Gg]3/2[^^F^^f]/[Gg]- | (3[Gg][Bb][Aa] | (3[Gg]3/2[^^F^^f]/[Gg]- | %80
 (3[Gg][Ee][Ff] | (3!arpeggio![Gg]3/2[^^F^^f]/[Gg]- | (3[Gg][Bb][Aa] | (3[Gg]3/2[^^F^^f]/[Gg]- | %84
 (3[Gg] [^F^f][^E^e] | (3[Ff]3/2[Gg]/[Ff]- | (3[Ff][=E=e][Dd] | (3[Ee]3/2[Ff]/[Ee]- | %88
 (3[Ee][Dd][Cc] | (3[Dd][Ff][Ee]- | (3[Ee][Dd][Ee] | (3:2:2[Cc]2 [Cc] | (3[Cc] z z || %93
[K:C][Q:1/4=88]"^Più stretto""^Excerpts from Part IV" z3/4 [^G,DE]/4[G,D-E-] | %94
 [^G,DE]/>[G,DE]/[G,D-E-] | [^G,DE]/>[G,DE]/[G,DE] |!mp! [A,CF]2 |!p! z3/4 [^G,DE]/4[G,D-E-] | %98
 [^G,DE]/>[G,DE]/[G,D-E-] | [^G,DE]/>[G,DE]/[G,DE] | [FAcf]/>F/F | [A,_EF]/>[A,EF]/[A,EF]- | %102
 [A,EF]/>[A,_EF]/[A,EF]- | [A,EF]/>[A,_EF]/[A,EF] | [_B,_D_G] z | [A,_EF]/>[A,EF]/[A,EF]- | %106
 [A,EF]/>[A,_EF]/[A,EF]- | [A,EF]/>[A,_EF]/[A,EF] | [_G_B_d_g]/>G/G | %109
 (3:2:2[=G_Be=g][GBeg]/(3:2:2[GBeg][GBeg]/ | (3:2:2[G_Beg][GBeg]/(3:2:2[GBeg][GBeg]/ | %111
 (3:2:2[G_Beg][GBeg]/(3:2:2[GBeg][GBeg]/ |!f! [G=Bfg]/>G/(3_B/A/_A/ | %113
 (3:2:2[=G_Be=g][GBeg]/(3:2:2[GBeg][GBeg]/ | (3:2:2[G_Beg][GBeg]/(3:2:2[GBeg][GBeg]/ | %115
 (3:2:2[G_Beg][GBeg]/(3:2:2[GBeg][GBeg]/ | [G=Bfg]/>G/(3_B/A/_A/ | %117
 (3:2:2[_ABdf_a][ABdfa]/(3:2:2[ABdfa][ABdfa]/ | (3:2:2[_ABdf_a][ABdfa]/(3:2:2[ABdfa][ABdfa]/ | %119
 (3:2:2[_ABdf_a][ABdfa]/(3:2:2[ABdfa][ABdfa]/ | [_Ac_g_a]/>A/(3_c/_B/__B/ | %121
 (3:2:2[_ABdf_a][ABdfa]/(3:2:2[ABdfa][ABdfa]/ | (3:2:2[_ABdf_a][ABdfa]/(3:2:2[ABdfa][ABdfa]/ | %123
 (3:2:2[_ABdf_a][ABdfa]/(3:2:2[ABdfa][ABdfa]/ | [_Ac_g_a]/>_E/A | %125
 (3:2:2[Ac^fa][Acfa]/(3:2:2[Acfa][Acfa]/ | (3:2:2[Ac^fa][Acfa]/(3:2:2[Acfa][Acfa]/ | %127
 (3:2:2[Ac^fa][Acfa]/(3:2:2[Acfa][Acfa]/ | [A^cea]/>E/A | (3:2:2[Ac^fa][Acfa]/(3:2:2[Acfa][Acfa]/ | %130
 (3:2:2[Ac^fa][Acfa]/(3:2:2[Acfa][Acfa]/ | (3:2:2[Ac^fa][Acfa]/(3:2:2[Acfa][Acfa]/ | [A^cea]/>E/A | %133
!f! z!ff! [A^cea] | z [A^cea] | z!ff! [A^cea] | z!ff! [A^cea] || %137
[K:G][Q:1/4=96]"^Spiritoso"!ff! (3:2:2[Ff][Gg]/(3:2:2[Aa][Bb]/ | %138
 (3:2:2[cc'][Bb]/(3:2:2[dd'][cc']/ | (3:2:2[Bb][Aa]/(3:2:2[Gg][Ff]/ | (3[Gg]/f/[Gg]/[Ee] | %141
 (3:2:2[Ff][Gg]/(3:2:2[Aa][Bb]/ | (3:2:2[cc'][Bb]/(3:2:2[dd'][cc']/ | %143
 (3:2:2[Bb][Aa]/(3:2:2[Gg][Ff]/ | (3[Gg]/f/[Gg]/[Ee] | (3:2:2[Ff][Gg]/(3:2:2[Aa][Bb]/ | %146
 (3:2:2[cc'][Bb]/(3:2:2[dd'][cc']/ | (3:2:2[cc'][Bb]/(3:2:2[dd'][cc']/ | %148
 (3:2:2[cc'][Bb]/(3:2:2[dd'][cc']/ | (3:2:2[Ff][Gg]/(3:2:2[Aa][Bb]/ | %150
 (3:2:2[cc'][Bb]/(3:2:2[dd'][cc']/ | (3:2:2[Bb][Aa]/(3:2:2[Gg][Ff]/ | (3[Gg]/f/g/e | %153
 (3:2:2f[Gg]/(3:2:2[Aa][Bb]/ | (3:2:2[cc'][Bb]/(3:2:2[dd'][cc']/ | (3:2:2[Bb][Aa]/(3:2:2[Gg][Ff]/ | %156
 (3[Gg]/f/g/e | (3:2:2f[Gg]/(3:2:2[Aa][Bb]/ | (3:2:2[cc'][Bb]/(3:2:2[dd'][cc']/ | %159
 (3:2:2[Ff][Gg]/(3:2:2[Aa][Bb]/ | (3:2:2[cc'][Bb]/(3:2:2[dd'][cc']/ | %161
 (3:2:2[cc'][Bb]/(3:2:2[dd'][cc']/ | (3:2:2[cc'][Bb]/(3:2:2[dd'][cc']/ | %163
 (3:2:2[cc'][Bb]/(3:2:2[dd'][cc']/ | (3:2:2[Bb][Aa]/(3:2:2[^G^g][Ff]/ | %165
[Q:1/4=88] (3[E^GBe]/ z/!f! [EF]/(3[EF]/[EF]/[EF]/ | (3[Fcef]/ z/ [EF]/(3[EF]/[EF]/[EF]/ | %167
 (3[Fcef]/ z/ [EF]/(3[EF]/[EF]/[EF]/ | [EF]/ f/4a/4a/4^g/4g/4f/4 | %169
!ff! (3:2:2[Be^g]!f! [EF]/ (3[EF]/[EF]/[EF]/ | [cef] z | [cef] z | [EF]/ f/4a/4a/4^g/4g/4f/4 | %173
 (3[Be^g]/ z/ [_A_B]/(3[AB]/[AB]/[AB]/ | z/ _b/4_d'/4d'/4c'/4c'/4b/4 | %175
 (3:2:2[c_e_ac'][_A_B]/(3[AB]/[AB]/[AB]/ | z/ _b/4_d'/4d'/4c'/4c'/4b/4 | %177
 (3[_e_ac']/ z/ [cd]/(3[cd]/[cd]/[cd]/ | (3:2:2[cdc'd'][cd]/(3[cd]/[cd]/[cd]/ | %179
 z/ d'/4=f'/4f'/4e'/4e'/4d'/4 | (3:2:2[cdd'][cd]/(3[cd]/[cd]/[cd]/ | %181
 z/ d'/4=f'/4f'/4e'/4e'/4d'/4 ||[K:C][M:6/4]!ff![Q:1/4=168] [egc'e']12- | [egc'e']12 | %184
 [CEGc] z z2 z8 |] %185
V:2
 z4 !arpeggio![EAce]2 z2 z2 ||[K:E][M:6/4] x12 | x12 | G,12 | G,12 | =G,12 | F,12 | x12 | B,12 | %9
 [B,^E]12 | [B,^F]12 | [B,^E]12 | x12 ||[K:G] x12 | x12 | x12 | x12 | x12 | x12 | x2!8va(! x10 | %20
 x12 |: x12 | x!8va)! x F4- F4 x2 | x2!8va(! x10 | ^c'6 z2 z4!8va)! :| x12 | x12 | x12 | x12 | %29
 [B^d]12 | [A^d]12 | =d12 | x12 | x12 | x12 ||[M:6/8] x2 | x6 | x6 | x6 | x6 | ^C3 =C3 | B,6 | C6 | %43
 B,3- B, x2 | E3 D3 | E3- E x2 | E3 D3 | E3- E x2 | ^D3 C3 | B,2 _B, A,3 | x6 | x6 | [gc']6 | %53
 z3 [=f^g]2 z | [ce]3 [_ef]3 | x6 | x6 | x6 | x6 | x4 ||[K:C][M:2/8] x2 | x2 | x2 | x2 | x2 | x2 | %66
 x2 | x2 | x2 | x2 | x2 | x2 | x2 | x2 | x2 | x2 | x2 ||[K:E] [Be]2 | x2 | [Be]2 | x2 | [Be]2 | %82
 x2 | [Be]2 | x2 | x2 | x2 | x2 | x2 | x2 | x2 | x2 | x2 ||[K:C] x2 | x2 | x2 | x2 | x2 | x2 | x2 | %100
 x2 | x2 | x2 | x2 | x2 | x2 | x2 | x2 | x2 | x2 | x2 | x2 | x2 | x2 | x2 | x2 | x2 | x2 | x2 | %119
 x2 | x2 | x2 | x2 | x2 | x2 | x2 | x2 | x2 | x2 | x2 | x2 | x2 | x2 | x2 | x2 | x2 | x2 || %137
[K:G] x2 | x2 | x2 | x2 | x2 | x2 | x2 | x2 | x2 | x2 | x2 | x2 | x2 | x2 | x B- | %152
 B/B/(3d'/^c'/=c'/ | [Bb] x | x2 | x B- | B/B/(3d'/^c'/=c'/ | [Bb] x | x2 | x2 | x2 | x2 | x2 | %163
 x2 | x2 | x2 | x2 | x2 | z/ e/e/e/ | x2 | (3:2:2F[EF]/(3[EF]/[EF]/[EF]/ | %171
 (3:2:2F[EF]/(3[EF]/[EF]/[EF]/ | z/ e/e/e/ | x2 | [_A_B]/ _a/a/a/ | x2 | [_A_B]/ _a/a/a/ | x2 | %178
 x2 | [cd]/ c'/c'/c'/ | x2 | [cd]/ c'/c'/c'/ ||[K:C][M:6/4] x3 CG[ce] [ce]2- [ce][ce]GC | %183
 C3 CG[ce] [ce]2- [ce][ce]GC | x12 |] %185
V:3
!ped! z4 !arpeggio![A,,E,A,C]2 z2"^molto rit." z2!ped-up! || %1
[K:E][M:6/4]!f!!ped! [E,,,E,,]2!p! B,,2 G,2 G,2 B,,2 E,,2 | %2
 [E,,,E,,]2 B,,2 G,2 G,2 B,,2 E,,2!ped-up! | %3
!mf!!ped! [E,,,E,,]2!p! B,,2 G,2 G,2 B,,2 E,,2!ped-up! | %4
!mf!!ped! E,,2!p! ^A,,2 G,2 G,2 A,,2 E,,2!ped-up! | %5
!mf!!ped! E,,2!p! B,,2 =G,2!mp! G,2 B,,2!ped-up! E,,2 | %6
!mf!!ped! D,,2!p! B,,2 F,2 F,2 B,,2 D,,2!ped-up! | %7
!mf!!ped! D,,2 B,,2!p! F,2 F,2 B,,2 D,,2!ped-up! | %8
!mf!!ped! D,,2!p! B,,2 F,2 F,2 B,,2!mf! D,,2!ped-up! | %9
!ped! D,,2!p! B,,2 ^E,2 E,2!mf! B,,2 D,,2!ped-up! |!ped! =D,,2 B,,2 F,2 F,2 B,,2!ped-up!!mf! D,,2 | %11
!ped! C,,2 B,,2!p! ^E,2 E,2 B,,2 C,,2!ped-up! |!mf!!ped! C,,2 B,,2!p! ^E,2 E,2 B,,2 C,,2!ped-up! || %13
[K:G]!ped! C12!ped-up! |!ped! C12!ped-up! |!ped! C12!ped-up! |!ped! C12!ped-up! | %17
!ped! x2 D,2 B,2!ped-up!!ped! [G,,B,]2 D,2 G,,2!ped-up! | %18
!ped! [G,,,G,,]2 D,2 B,2!ped-up!!ped! [^G,,B,]2 D,2 G,,2!ped-up! | %19
!ped! [A,,,A,,]2 E,2 ^C2!ped-up!!ped! [A,,C]2 E,2 A,,2!ped-up! | %20
!ped! [A,,,A,,]2 E,2 ^C2!ped-up!!ped! [^A,,C]2 F,2 A,,2!ped-up! |: %21
!ped! [B,,,B,,]2 F,2 ^D2!ped-up!!ped! D2 F,2 B,,2!ped-up! | %22
!ped! [B,,,B,,]2 A,2 ^D2 D2 A,2!ped-up! B,,2 |!ped! [B,,,B,,]2 =G,2 =D2 D2 G,2 B,,2!ped-up! | %24
!ped! [B,,,B,,]2 ^G,2 ^C2 C2 G,2 B,,2!ped-up! :| %25
!ff!!ped! [B,,B,]4 [F,,F,]2 [A,,A,]4!ped-up!!ped! [G,,G,][F,,F,]!ped-up! | %26
!ped! [G,,G,]4 [D,,D,]2!ped-up!!ped! [^E,,^E,]2 [^C,,^C,]2 z2!ped-up! | %27
!ped! [B,,B,]4 [F,,F,]2 [A,,A,]4!ped-up!!ped! [G,,G,][F,,F,]!ped-up! | %28
!ped! [G,,G,]4 [D,,D,]2!ped-up!!ped! [^E,,^E,]2 [^C,,^C,]2 z2!ped-up! | %29
!f!!ped! B,,2!mp! F,2 ^D2 D2 F,2 B,,2!ped-up! |!f!!ped! B,,2!mp! ^E,2 ^D2 D2 ^E,2 B,,2!ped-up! | %31
!f!!ped! B,,2 F,2 =D2 D2 F,2 B,,2!ped-up! | %32
!ped! [B,,F,B,]2 [^G,^C^E]2 C2!ped-up!!ped! [=C=E]2 [E,=G,C]2 B,,2!ped-up! | %33
!ped! [B,,,B,,]2 [F,B,E]2 B,2!ped-up!!ped! [B,^DF]2 [F,B,D]2 B,,2 | %34
!p! [B,,,B,,]2- [B,,,B,,]B,,^D,B, z2 z2 z2!ped-up! ||[M:6/8] z2 | [G,,D,B,]6- | [G,,D,B,]6 | %38
 [G,,B,]6 | [G,,E,B,]6 | E,3 ^D,3 | [G,,E,G,]6 | E,3 _E,3 | [G,,D,G,]3- [G,,D,G,] z z | F,3 A,3 | %45
 G,3- G, z z | F,3 A,3 | G,3- G, z z | [B,,F,]3 [A,,^D,]3 | [G,,E,]3 [F,,D,]3 | _A,3 G, z z | %51
 G,3- G, B,D | _E6 | D,2 B, [D=F]2 ^G, | D,2 A, !fermata![C_E]3 | z!p! x x x x2 | %56
!pp!!<(! x x!<)![K:treble] [C_E]!>(! c2!>)! E |[K:bass]!p! x x x x x2 | %58
!pp!!<(! x x[K:treble]!<)!!p! [C_E] c2 [CE] |[K:bass]!p! G,,3 G,, ||[K:C][M:2/8] G/ G/G/G/ | %61
!ped! (3[C,E,G,C]C,G, | (3E!ped-up!G z |!ped! (3[C,E,G,C]C,G,!ped-up! | (3EG z | %65
!ped! (3[C,E,G,C]C,G,!ped-up! | (3EG z |!ped! (3[C,E,G,C]C,G,!ped-up! | (3E_B z | %69
!ped! (3[F,A,D] A,D!ped-up! | (3[E,^G,] E,D |!ped! (3A,, E,C!ped-up! | (3[C,E,] A,E | %73
!ped! (3[D,F,] A,D!ped-up! | (3E, ^G,D |!ped! (3[A,,C,E,A,] A,C!ped-up! | (3[CE]A z || %77
[K:E]!ped! (3B,G,B,!ped-up! | (3^DF z |!ped! (3B,G,B,!ped-up! | (3^DG z |!ped! (3B,G,B,!ped-up! | %82
 (3^DF z |!ped! (3B,G,B,!ped-up! | (3=DG z |!ped! (3^A,C[I:staff -1]F!ped-up! | %86
[I:staff +1] (3=A,=C,F, |!ped! (3G,B,,E,!ped-up! | (3C,D,E, |!ped! (3z D,E,!ped-up! | (3z F,^B,, | %91
!ped! (3C,E,F,!ped-up! | (3G,CC, || %93
[K:C]!p!!ped! (3:2:2[B,,,B,,] [^C,,^C,]/(3:2:2[D,,D,][=C,,=C,]/!ped-up! | %94
!ped! (3:2:2[B,,,B,,][^C,,^C,]/(3:2:2[D,,D,][=C,,=C,]/!ped-up! | %95
!ped! (3:2:2[B,,,B,,][^C,,^C,]/(3:2:2[D,,D,][B,,,B,,]/!ped-up! | %96
!ped! (3[=C,,=C,]/B,,/C,/(3A,,/B,,/C,/!ped-up! | %97
!ped! (3:2:2[B,,,B,,][^C,,^C,]/(3:2:2[D,,D,][=C,,=C,]/!ped-up! | %98
!ped! (3:2:2[B,,,B,,][^C,,^C,]/(3:2:2[D,,D,][=C,,=C,]/!ped-up! | %99
!ped! (3:2:2[B,,,B,,][^C,,^C,]/(3:2:2[D,,D,][B,,,B,,]/!ped-up! | %100
!mp!!ped! (3[=C,,=C,]/B,,/C,/A,,!ped-up! | %101
!p!!ped! (3:2:2[C,,C,][=D,,=D,]/(3:2:2[_E,,_E,][_D,,_D,]/!ped-up! | %102
!ped! (3:2:2[C,,C,][=D,,=D,]/(3:2:2[_E,,_E,][_D,,_D,]/!ped-up! | %103
!ped! (3:2:2[C,,C,][=D,,=D,]/(3:2:2[_E,,_E,][C,,C,]/!ped-up! | %104
!mp!!ped! (3[_D,,_D,]/C,/D,/(3_B,,/C,/D,/!ped-up! | %105
!ped! (3:2:2[C,,C,][=D,,=D,]/(3:2:2[_E,,_E,][_D,,_D,]/!ped-up! | %106
!ped! (3:2:2[C,,C,][=D,,=D,]/(3:2:2[_E,,_E,][_D,,_D,]/!ped-up! | %107
!ped! (3:2:2[C,,C,][=D,,=D,]/(3:2:2[_E,,_E,][C,,C,]/!ped-up! | %108
!mf!!ped! (3[_D,,_D,]/C,/D,/(3_B,,/C,/D,/!ped-up! | %109
!ped! (3:2:2[^C,,^C,][^D,,^D,]/(3:2:2[E,,E,][^F,,^F,]/!ped-up! | %110
!ped! (3:2:2[G,,G,][^F,,^F,]/(3:2:2[A,,A,][G,,G,]/!ped-up! | %111
!ped! (3:2:2[^F,,^F,][E,,E,]/(3:2:2[=D,,=D,][^C,,^C,]/!ped-up! | %112
!ped! (3[D,,D,]/^C,/D,/B,,!ped-up! | %113
!ped! (3:2:2[^C,,^C,][^D,,^D,]/(3:2:2[E,,E,][^F,,^F,]/!ped-up! | %114
!ped! (3:2:2[G,,G,][^F,,^F,]/(3:2:2[A,,A,][G,,G,]/!ped-up! | %115
!ped! (3:2:2[^F,,^F,][E,,E,]/(3:2:2[=D,,=D,][^C,,^C,]/!ped-up! | %116
!ped! (3[D,,D,]/^C,/D,/B,,!ped-up! |!ped! (3:2:2[D,,D,][=E,,=E,]/(3:2:2[F,,F,][G,,G,]/!ped-up! | %118
!ped! (3:2:2[_A,,_A,][G,,G,]/(3:2:2[_B,,_B,][A,,A,]/!ped-up! | %119
!ped! (3:2:2[G,,G,][F,,F,]/(3:2:2[_E,,_E,][D,,D,]/!ped-up! |!ped! (3[_E,,_E,]/D,/E,/=C,!ped-up! | %121
!ped! (3:2:2[D,,D,][=E,,=E,]/(3:2:2[F,,F,][G,,G,]/!ped-up! | %122
!ped! (3:2:2[_A,,_A,][G,,G,]/(3:2:2[_B,,_B,][A,,A,]/!ped-up! | %123
!ped! (3:2:2[G,,G,][F,,F,]/(3:2:2[_E,,_E,][D,,D,]/!ped-up! |!ped! (3[_E,,_E,]/D,/E,/C,!ped-up! | %125
!ff!!ped! (3:2:2[^D,,^D,][^E,,^E,]/(3:2:2[^F,,^F,][^G,,^G,]/!ped-up! | %126
!ped! (3:2:2[A,,A,][^G,,^G,]/(3:2:2[B,,B,][A,,A,]/!ped-up! | %127
!ped! (3:2:2[^G,,^G,][^F,,^F,]/(3:2:2[E,,E,][^D,,^D,]/!ped-up! | %128
!ped! (3[E,,E,]/^D,/E,/^C,!ped-up! | %129
!ped! (3:2:2[^D,,^D,][^E,,^E,]/(3:2:2[^F,,^F,][^G,,^G,]/!ped-up! | %130
!ped! (3:2:2[A,,A,][^G,,^G,]/(3:2:2[B,,B,][A,,A,]/!ped-up! | %131
!ped! (3:2:2[^G,,^G,][^F,,^F,]/(3:2:2[E,,E,][^D,,^D,]/!ped-up! | %132
!ped! (3[E,,E,]/^D,/E,/^C,!ped-up! |!ped! (3[E,,E,]/^D,/E,/^C,!ped-up! | %134
!f!!ped! (3[E,,E,]/^D,/E,/!ff!^C,!ped-up! |!f!!ped! (3[E,,E,]/^D,/E,/^C,!ped-up! | %136
!f!!ped! (3[E,,E,]/^D,/E,/^C,!ped-up! || %137
[K:G]!f!!ped! (3:2:2[C,E,F,A,][C,E,F,A,]/(3:2:2[C,E,F,A,][C,E,F,A,]/!ped-up! | %138
!ped! (3:2:2[C,E,F,A,][C,E,F,A,]/(3:2:2[C,E,F,A,][C,E,F,A,]/!ped-up! | %139
!ped! (3:2:2[C,E,F,A,][C,E,F,A,]/(3:2:2[C,E,F,A,][C,E,F,A,]/!ped-up! | %140
!ped! (3:2:2[C,E,G,_B,][C,E,G,B,]/(3:2:2[C,E,G,B,][C,E,G,B,]/!ped-up! | %141
!ped! (3:2:2[C,E,F,A,][C,E,F,A,]/(3:2:2[C,E,F,A,][C,E,F,A,]/!ped-up! | %142
!ped! (3:2:2[C,E,F,A,][C,E,F,A,]/(3:2:2[C,E,F,A,][C,E,F,A,]/!ped-up! | %143
!ped! (3:2:2[C,E,F,A,][C,E,F,A,]/(3:2:2[C,E,F,A,][C,E,F,A,]/!ped-up! | %144
!ped! (3:2:2[C,E,G,_B,][C,E,G,B,]/(3:2:2[C,E,G,B,][C,E,G,B,]/!ped-up! | %145
!ped! (3:2:2[C,E,F,A,][C,E,F,A,]/(3:2:2[C,E,F,A,][C,E,F,A,]/!ped-up! | %146
!ped! (3:2:2[C,E,F,A,][C,E,F,A,]/(3:2:2[C,E,F,A,][C,E,F,A,]/!ped-up! | %147
!ped! (3:2:2[C,E,F,A,][C,E,F,A,]/(3:2:2[C,E,F,A,][C,E,F,A,]/!ped-up! | %148
!ped! (3:2:2[C,E,F,A,][C,E,F,A,]/(3:2:2[C,E,F,A,][C,E,F,A,]/!ped-up! | %149
!ped! (3:2:2[B,,^D,A,][B,,D,A,]/(3:2:2[B,,D,A,][B,,D,A,]/!ped-up! | %150
!ped! (3:2:2[B,,^D,A,][B,,D,A,]/(3:2:2[B,,D,A,][B,,D,A,]/!ped-up! | %151
!ped! (3:2:2[B,,^D,A,][B,,D,A,]/(3:2:2[B,,D,A,][B,,D,A,]/!ped-up! |!ped! [B,,E,G,] z!ped-up! | %153
!ped! (3:2:2[B,,^D,A,][B,,D,A,]/(3:2:2[B,,D,A,][B,,D,A,]/!ped-up! | %154
!ped! (3:2:2[B,,^D,A,][B,,D,A,]/(3:2:2[B,,D,A,][B,,D,A,]/!ped-up! | %155
!ped! (3:2:2[B,,^D,A,][B,,D,A,]/(3:2:2[B,,D,A,][B,,D,A,]/!ped-up! |!ped! [B,,E,G,] z!ped-up! | %157
!ped! (3:2:2[B,,^D,A,][B,,D,A,]/(3:2:2[B,,D,A,][B,,D,A,]/!ped-up! | %158
!ped! (3:2:2[B,,^D,A,][B,,D,A,]/(3:2:2[B,,D,A,][B,,D,A,]/!ped-up! | %159
!ped! (3:2:2[B,,^D,F,A,][B,,D,F,A,]/(3:2:2[B,,D,F,A,][B,,D,F,A,]/!ped-up! | %160
!ped! (3:2:2[B,,^D,F,A,][B,,D,F,A,]/(3:2:2[B,,D,F,A,][B,,D,F,A,]/!ped-up! | %161
!ped! (3:2:2[B,,^D,F,A,][B,,D,F,A,]/(3:2:2[B,,D,F,A,][B,,D,F,A,]/!ped-up! | %162
!ped! (3:2:2[B,,^D,F,A,][B,,D,F,A,]/(3:2:2[B,,D,F,A,][B,,D,F,A,]/!ped-up! | %163
!ped! (3:2:2[B,,^D,F,A,][B,,D,F,A,]/(3:2:2[B,,D,F,A,][B,,D,F,A,]/!ped-up! | %164
!ped! (3:2:2[B,,^D,F,A,B,][B,,D,F,A,B,]/(3:2:2[B,,D,F,A,B,][B,,D,F,A,B,]/!ped-up! | %165
!ff! [E,,E,]/ z/ z |!ff! [A,,E,F,A,]/ z/!f! z |!ff! [A,,E,F,A,]/ z/!f! z | %168
 z/ [A,,C,E,F,]/[A,,C,E,F,]/[A,,C,E,F,]/ | [E,,^G,,B,,E,] z | [A,,E,F,A,] z | [A,,E,F,A,] z | %172
 z/ [A,,C,E,]/[A,,C,E,]/[A,,C,E,]/ | [E,,^G,,B,,E,]/ z/ z | %174
 z/ [_D,_F,_A,_B,]/[D,F,A,B,]/[D,F,A,B,]/ | [_A,,C,_E,_A,]/ z/ z | %176
 z/ [_D,_F,_A,_B,]/[D,F,A,B,]/[D,F,A,B,]/ | [_A,,C,_E,_A,]/ z/ z | [=F,,_A,,C,D,=F,] z | %179
 z/ [=F,_A,CD]/[F,A,CD]/[F,A,CD]/ | [=F,,_A,,C,D,=F,]/ z/ z | z/ [=F,_A,CD]/[F,A,CD]/[F,A,CD]/ || %182
[K:C][M:6/4]!ped! [C,,G,,C,]3 C,G,E E2- EEG,C, | [C,G,]3 C,G,E E2- EEG,C,!ped-up! | %184
!fff! [C,,G,,C,] z z2 z8 |] %185
V:4
 x10 ||[K:E][M:6/4] E,,12 | E,,12 | E,,12 | E,,12 | E,,12 | D,,12 | D,,12 | D,,12 | x12 | x12 | %11
 C,,12 | C,,12 ||[K:G] .A,,2 E,2 A,2 E2 A,2 E,2 | .A,,2 E,2 A,2 E2 A,2 E,2 | %15
 .A,,2 E,2 A,2 E2 A,2 C,2 | .A,,2 E,2 C2 D2 A,2 D,2 | [G,,D,B,]6 x6 | x12 | x12 | x12 |: x12 | %22
 x12 | x12 | x12 :| x12 | x12 | x12 | x12 | x12 | x12 | x12 | x12 | x12 | x12 ||[M:6/8] x2 | x6 | %37
 x6 | D,3 ^D,3 | x6 | [G,,A,]6 | x6 | [G,,A,]6 | x6 | C,6 | C,6 | C,6 | C,3 C,3 | x6 | x6 | %50
 [=F,,D,]3 [E,,G,,] z z | [_E,,G,,]3 [D,,G,,] z z | [C,G,]2 G, C2 G, | [D,,D,]6 | [D,,D,]6 | %55
 [G,,G,]4 G,.G, | [=F,,C,_E,_A,]6[K:treble] |[K:bass] [G,,B,,D,G,]4 G,.G, | %58
 [=F,,C,_E,_A,]6[K:treble] |[K:bass] x4 ||[K:C][M:2/8] x2 | x2 | x2 | x2 | x2 | x2 | x2 | x2 | x2 | %69
 x2 | x2 | x2 | x2 | x2 | x2 | x2 | x2 ||[K:E] (3:2:1B,,3- | (3:2:1B,,3- | (3:2:1B,,3- | %80
 (3:2:1B,,3 | (3:2:1B,,3- | (3:2:1B,,3- | (3:2:1B,,3- | (3:2:1B,,3 | (3:2:1^A,,3 | (3:2:1=A,,3 | %87
 (3:2:1G,,3 | (3:2:1^^F,,3 | (3:2:1^F,,3 | (3:2:1G,,3 | (3:2:1A,,3 | (3:2:2C,2 z ||[K:C] x2 | x2 | %95
 x2 | x2 | x2 | x2 | x2 | x2 | x2 | x2 | x2 | x2 | x2 | x2 | x2 | x2 | x2 | x2 | x2 | x2 | x2 | %114
 x2 | x2 | x2 | x2 | x2 | x2 | x2 | x2 | x2 | x2 | x2 | x2 | x2 | x2 | x2 | x2 | x2 | x2 | x2 | %133
 x2 | x2 | x2 | x2 ||[K:G] x2 | x2 | x2 | x2 | x2 | x2 | x2 | x2 | x2 | x2 | x2 | x2 | x2 | x2 | %151
 x2 | x2 | x2 | x2 | x2 | x2 | x2 | x2 | x2 | x2 | x2 | x2 | x2 | x2 | x2 | x2 | x2 | x2 | x2 | %170
 x2 | x2 | x2 | x2 | x2 | x2 | x2 | x2 | x2 | x2 | x2 | x2 ||[K:C][M:6/4] x12 | x12 | x12 |] %185
V:5
 x10 ||[K:E][M:6/4] x12 | x12 | x12 | x12 | x12 | x12 | x12 | x12 | x12 | x12 | x12 | x12 || %13
[K:G] x12 | x12 | x12 | x12 | x12 | x12 | x12 | x12 |: x12 | x12 | x12 | x12 :| x12 | x12 | x12 | %28
 x12 | x12 | x12 | x12 | x12 | x12 | x12 ||[M:6/8] x2 | x6 | x6 | x6 | x6 | x6 | x6 | x6 | x6 | %44
 x6 | x6 | x6 | x6 | x6 | x6 | x6 | x6 | x6 | x6 | x6 | x6 | x2[K:treble] x4 |[K:bass] x6 | %58
 x17/10[K:treble] x43/10 |[K:bass] x4 ||[K:C][M:2/8] x2 | x2 | x2 | x2 | x2 | x2 | x2 | x2 | x2 | %69
 x2 | x2 | x2 | x2 | x2 | x2 | x2 | x2 ||[K:E] x2 | (3:2:1=C3 | x2 | x2 | x2 | (3:2:1=C3 | x2 | %84
 x2 | x2 | x2 | x2 | x2 | x2 | x2 | x2 | x2 ||[K:C] x2 | x2 | x2 | x2 | x2 | x2 | x2 | x2 | x2 | %102
 x2 | x2 | x2 | x2 | x2 | x2 | x2 | x2 | x2 | x2 | x2 | x2 | x2 | x2 | x2 | x2 | x2 | x2 | x2 | %121
 x2 | x2 | x2 | x2 | x2 | x2 | x2 | x2 | x2 | x2 | x2 | x2 | x2 | x2 | x2 | x2 ||[K:G] x2 | x2 | %139
 x2 | x2 | x2 | x2 | x2 | x2 | x2 | x2 | x2 | x2 | x2 | x2 | x2 | x2 | x2 | x2 | x2 | x2 | x2 | %158
 x2 | x2 | x2 | x2 | x2 | x2 | x2 | x2 | x2 | x2 | x2 | x2 | x2 | x2 | x2 | x2 | x2 | x2 | x2 | %177
 x2 | x2 | x2 | x2 | x2 ||[K:C][M:6/4] x12 | x12 | x12 |] %185

